!!!OTL: Is deas an Buachaill p&szlig;idín, S. 171
!!!id: I0558
**kern
*clefG2
*k[b-e-a-d-]
*A-:
{8a-
=1
8cc
8cc
8cc
8dd-
=2
4ee-
8ee-
8cc
=3
4dd-
8cc
8dd-
=4
8ee-
8dd-
8.b-}
=5
{16b-
=6
8cc
8cc
8cc
8dd-
=7
4ee-
8dd-
8cc
=8
8dd-
8cc
8b-
8a-
=9
8a-
8f
4e-}
=10
{8cc
8a-
8f
8e-
=11
4e-
8e-
8f
=12
8a-
8a-
8b-
8cc
=13
8dd-
8cc
4b-}
=14
{8cc
8a-
8f
8e-
=15
4e-
8e-
8f
=16
8a-
8a-
8.b-
16b-
=17
8cc
8a-
8a-}
==
*-
!!!minrhy: 16
!!!meters: 2/4 ]  ZZ[4
!!!cut: Is deas an Buachaill p&szlig;idín, S. 171
!!!reg: Irland
!!!trd: O'SULLIVAN, Donal: Song of the Irish
!!!rhy1: X_  X_X_X_X_  X__X_X_  X__X_X_  X_X_X_.
!!!rhy2: X  X_X_X_X_  X__X_X_  X_X_X_X_  X_X_X__
!!!key: I0558  16 Ab 2/4 ]  ZZ[4
!!!mod: SECHSTONSKALA DUR ?]  AMBITUS[8
!!!kad: 2-521
!!!akz: 3545_3541_3-514_3-513_
!!!fot: 'a__b__c__cw_
!!!for: 'a__b__bv_c__
!!!fok: 'Ma_^d_Sd_Sd_
!! PHRAS[GEMISCHTTAKTIG]
!!!fkt: Scherzlied
!! IRISCHE V
!! PR[11] 2K[19] 2G[24] 3K[0] 3G[4] 4A[3] 4Ü[0] 5A[0] 6K[0] 6G[0]
!! 7K[0] 7G[0] 8A[0] MEHR[0] SI[50] ABS[96] SR[43] SP[7]
!! ST[16] 2k[9] 2g[9] 3k[10] 3g[7] 4d[2] 4ü[0] 5d[0] 6k[0] 6g[0]
!! 7k[0] 7g[0] 8d[0] mehr[0] si[39] dm[+11] sr[19] sp[20]
!! 1F[13] 2F[80] 3F[5] 4F[0] LF[0] 2P[1] 3P[0] 4P[0] TRI[0] DF[4] AB[97]
!! TF[0] U3K[0] U3[0] U4[0] U4Ü[0] U5[0] U6K[0] U6[0] U7K[0] U7[3]
!! N1[13] N2K[0] N2[14] N3K[0] N3[18] N4[22] N4Ü[2] N5[15] N6K[0] N6[3]
!!!n7k: 0] N7[3] O1[5] O2K[0] O2[1] O3K[0] O3[0] HÖ[0
!!!RNB: symbol: &szlig; = sz ligature (UTF-8: ÃŸ)
